symbols/web/mp/materialsymbolsrounded/mp_wght200gradN25fill1_48px.svg

<svg xmlns="http://www.w3.org/2000/svg" height="48" width="48"><path d="M28.65 29.35q.3 0 .5-.225t.2-.575V26.3h4.8q.6 0 .975-.35t.375-1V20q0-.6-.375-.975t-.975-.375H29.2q-.6 0-.975.375T27.85 20v8.55q0 .35.225.575.225.225.575.225Zm.7-4.55v-4.65H34v4.65Zm-16.1 4.55q.35 0 .55-.225.2-.225.2-.575v-8.4h3.65v5.4q0 .3.225.525.225.225.525.225.35 0 .575-.225.225-.225.225-.525v-5.4h3.55v8.4q0 .35.225.575.225.225.575.225.3 0 .525-.225.225-.225.225-.575V20q0-.6-.375-.975t-.975-.375h-9.1q-.65 0-1 .375T12.5 20v8.55q0 .35.225.575.225.225.525.225Zm-2.45 10.6q-1.15 0-1.95-.8t-.8-1.95V10.8q0-1.15.8-1.95t1.95-.8h26.4q1.15 0 1.95.8t.8 1.95v26.4q0 1.15-.8 1.95t-1.95.8Z"/></svg>

<svg xmlns="http://www.w3.org/2000/svg" height="48" width="48"><path d="M28.65 29.35Q28.95 29.35 29.15 29.125Q29.35 28.9 29.35 28.55V26.3H34.15Q34.75 26.3 35.125 25.95Q35.5 25.6 35.5 24.95V20Q35.5 19.4 35.125 19.025Q34.75 18.65 34.15 18.65H29.2Q28.6 18.65 28.225 19.025Q27.85 19.4 27.85 20V28.55Q27.85 28.9 28.075 29.125Q28.3 29.35 28.65 29.35ZM29.35 24.8V20.15H34V24.8ZM13.25 29.35Q13.6 29.35 13.8 29.125Q14 28.9 14 28.55V20.15H17.65V25.55Q17.65 25.85 17.875 26.075Q18.1 26.3 18.4 26.3Q18.75 26.3 18.975 26.075Q19.2 25.85 19.2 25.55V20.15H22.75V28.55Q22.75 28.9 22.975 29.125Q23.2 29.35 23.55 29.35Q23.85 29.35 24.075 29.125Q24.3 28.9 24.3 28.55V20Q24.3 19.4 23.925 19.025Q23.55 18.65 22.95 18.65H13.85Q13.2 18.65 12.85 19.025Q12.5 19.4 12.5 20V28.55Q12.5 28.9 12.725 29.125Q12.95 29.35 13.25 29.35ZM10.8 39.95Q9.65 39.95 8.85 39.15Q8.05 38.35 8.05 37.2V10.8Q8.05 9.65 8.85 8.85Q9.65 8.05 10.8 8.05H37.2Q38.35 8.05 39.15 8.85Q39.95 9.65 39.95 10.8V37.2Q39.95 38.35 39.15 39.15Q38.35 39.95 37.2 39.95Z"/></svg>
